X:200
T: DU LIEBLICHER STERN DU LEUCHTEST SO FERN
N: B0238
O: Europa, Mitteleuropa, Deutschland
R: Tageszeiten - Lied, Abend
M: 2/4
L: 1/8
K: A
E | c2BA | F3
F | d2B^B | c3
c | c2^AF | f2B
B | d2Bc | A3

@@@ Tune index: 2003
